logos/hashnode.svg

<?xml version="1.0" encoding="UTF-8"?>
<svg width="512px" height="88px" viewBox="0 0 512 88" version="1.1" xmlns="http://www.w3.org/2000/svg" xmlns:xlink="http://www.w3.org/1999/xlink" preserveAspectRatio="xMidYMid">
    <g fill-rule="evenodd">
        <path d="M5.91859012,28.7771902 C-1.97286337,36.6686437 -1.97286337,49.461732 5.91859012,57.3524411 L28.7777485,80.212344 C36.669202,88.103053 49.4622904,88.103053 57.3529994,80.212344 L80.2129023,57.3524411 C88.1036113,49.4609876 88.1036113,36.6678992 80.2129023,28.7771902 L57.3529994,5.91803176 C49.4615459,-1.97267725 36.6684576,-1.97267725 28.7777485,5.91803176 L5.91859012,28.7771902 Z M53.0663023,53.0664884 C58.5903198,47.542471 58.5903198,38.5871602 53.0663023,33.0638873 C47.5430294,27.5398698 38.5877186,27.5398698 33.0644456,33.0638873 C27.5404282,38.5879047 27.5404282,47.542471 33.0644456,53.0664884 C38.5884631,58.5897614 47.5430294,58.5897614 53.0670468,53.0664884 L53.0663023,53.0664884 Z" fill="#2962FF"></path>
        <path d="M120.186092,58.3381283 C120.218105,51.9735966 124.107996,48.2445126 129.701249,48.2445126 C135.262491,48.2445126 138.541166,51.8127896 138.509154,57.8884643 L138.509154,86.8836001 L152.203171,86.8836001 L152.203171,55.4450916 C152.235072,43.8729451 145.420131,36.8651855 135.133696,36.8651855 C127.64426,36.8651855 122.629465,40.4014501 120.378912,46.2195358 L119.800453,46.2195358 L119.800453,21.0502661 L106.492187,21.0502661 L106.492187,86.8836001 L120.186092,86.8836001 L120.186092,58.3381283 L120.186092,58.3381283 Z M173.438514,87.815685 C180.73513,87.815685 185.460324,84.6330469 187.871684,80.0366475 L188.257323,80.0366475 L188.257323,86.8836001 L201.243976,86.8836001 L201.243976,53.5809219 C201.243976,41.8159559 191.279154,36.8651855 180.285466,36.8651855 C168.455731,36.8651855 160.676693,42.5232088 158.779767,51.5239326 L171.445549,52.552055 C172.377634,49.2733794 175.302683,46.8627637 180.220697,46.8627637 C184.881866,46.8627637 187.55007,49.2093544 187.55007,53.2593079 L187.55007,53.4528719 C187.55007,56.6347655 184.174613,57.0524169 175.592285,57.8884643 C165.819539,58.7885367 157.044391,62.0672123 157.044391,73.0929129 C157.044391,82.8649146 164.019394,87.815685 173.438514,87.815685 L173.438514,87.815685 Z M177.359673,78.3645527 C173.148912,78.3645527 170.127081,76.4043454 170.127081,72.6432489 C170.127081,68.7853704 173.309719,66.8884437 178.131695,66.2139477 C181.120769,65.7962963 186.00677,65.0890434 187.646108,63.995407 L187.646108,69.2357789 C187.646108,74.4106367 183.371322,78.3645527 177.359673,78.3645527 Z M249.32824,51.5879576 C248.107298,42.4904518 240.777924,36.8651855 228.305705,36.8651855 C215.672679,36.8651855 207.347196,42.7160283 207.379208,52.2311855 C207.347196,59.6238396 212.008365,64.413803 221.651572,66.3427422 L230.201887,68.046105 C234.50943,68.9141649 236.470382,70.4894777 236.534407,72.9641184 C236.470382,75.889912 233.287744,77.9789137 228.498525,77.9789137 C223.612524,77.9789137 220.365861,75.889912 219.529813,71.8712265 L206.061485,72.5784794 C207.347196,82.0296117 215.383078,87.8476975 228.466512,87.8476975 C241.260345,87.8476975 250.421131,81.3223588 250.453888,71.5823695 C250.421131,64.4458155 245.760707,60.1702855 236.181525,58.2100783 L227.244826,56.4099335 C222.647682,55.4130791 220.944319,53.8377664 220.976332,51.4591632 C220.944319,48.5021015 224.287764,46.5731623 228.530537,46.5731623 C233.287744,46.5731623 236.116755,49.1773419 236.791996,52.3592355 L249.32824,51.5879576 L249.32824,51.5879576 Z M269.149933,58.3381283 C269.181945,51.9735966 273.071092,48.2445126 278.664346,48.2445126 C284.225587,48.2445126 287.504262,51.8127896 287.47225,57.8884643 L287.47225,86.8836001 L301.166268,86.8836001 L301.166268,55.4450916 C301.198168,43.8729451 294.383228,36.8651855 284.096792,36.8651855 C276.607356,36.8651855 271.592561,40.4014501 269.342752,46.2195358 L268.763549,46.2195358 L268.763549,21.0502661 L255.456028,21.0502661 L255.456028,86.8836001 L269.149933,86.8836001 L269.149933,58.3381283 Z M322.015971,58.3381283 C322.047983,51.9735966 325.841092,48.2445126 331.370321,48.2445126 C336.866793,48.2445126 340.178226,51.8448021 340.145469,57.8884643 L340.145469,86.8836001 L353.839374,86.8836001 L353.839374,55.4450916 C353.839374,43.9377146 347.089203,36.8651855 336.802768,36.8651855 C329.473394,36.8651855 324.169742,40.4654751 321.951946,46.2195358 L321.372743,46.2195358 L321.372743,37.5084134 L308.322066,37.5084134 L308.322066,86.8836001 L322.015971,86.8836001 L322.015971,58.3381283 Z M383.319908,87.8476975 C398.300269,87.8476975 407.621863,77.5932748 407.621863,62.3888262 C407.621863,47.0875957 398.300269,36.8651855 383.319908,36.8651855 C368.340292,36.8651855 359.018699,47.0875957 359.018699,62.3888262 C359.018699,77.5932748 368.340292,87.8476975 383.319908,87.8476975 Z M383.384678,77.2396483 C376.4737,77.2396483 372.937436,70.9071291 372.937436,62.2920443 C372.937436,53.6769594 376.4737,47.3131722 383.384678,47.3131722 C390.166861,47.3131722 393.703126,53.6777039 393.703126,62.2920443 C393.703126,70.9071291 390.166861,77.2396483 383.384678,77.2396483 Z M431.099681,87.6868905 C439.071538,87.6868905 443.218274,83.0904911 445.115201,78.9757681 L445.693659,78.9757681 L445.693659,86.8836001 L459.194745,86.8836001 L459.194745,21.0495216 L445.532852,21.0495216 L445.532852,45.8018844 L445.115201,45.8018844 C443.282299,41.7839434 439.328383,36.8651855 431.067669,36.8651855 C420.234788,36.8651855 411.073257,45.2874509 411.073257,62.2600318 C411.073257,78.7829486 419.849149,87.6868905 431.099681,87.6868905 Z M435.439236,76.7899844 C428.721078,76.7899844 425.056019,70.8103472 425.056019,62.1960068 C425.056019,53.6449469 428.656309,47.7628361 435.439236,47.7628361 C442.093369,47.7628361 445.822453,53.3881024 445.822453,62.1960068 C445.822453,71.0031666 442.0286,76.7899844 435.439236,76.7899844 L435.439236,76.7899844 Z M489.334141,87.8476975 C501.549516,87.8476975 509.778217,81.9008172 511.707156,72.7392864 L499.042118,71.9039835 C497.659625,75.6643355 494.124105,77.6252873 489.558973,77.6252873 C482.712021,77.6252873 478.372466,73.0929129 478.372466,65.7315268 L478.372466,65.6995143 L511.996758,65.6995143 L511.996758,61.9384178 C511.996758,45.1586565 501.838373,36.8651855 488.787695,36.8651855 C474.257743,36.8651855 464.839367,47.1836332 464.839367,62.4208387 C464.839367,78.0756957 474.129693,87.8476975 489.334141,87.8476975 L489.334141,87.8476975 Z M478.372466,57.2132239 C478.662067,51.5879576 482.937597,47.0875957 489.012527,47.0875957 C494.959408,47.0875957 499.074131,51.3311132 499.106143,57.2132239 L478.372466,57.2132239 Z" fill="#000000"></path>
    </g>
</svg>

<svg preserveAspectRatio="xMidYMid" viewBox="0 0 512 88" xmlns="http://www.w3.org/2000/svg">
  <g fill-rule="evenodd">
    <path fill="#2962FF" d="M5.919 28.777c-7.892 7.892-7.892 20.685 0 28.575l22.859 22.86c7.891 7.891 20.684 7.891 28.575 0l22.86-22.86c7.89-7.891 7.89-20.684 0-28.575L57.353 5.918c-7.891-7.89-20.685-7.89-28.575 0l-22.86 22.86Zm47.147 24.29c5.524-5.525 5.524-14.48 0-20.003-5.523-5.524-14.478-5.524-20.002 0-5.524 5.524-5.524 14.478 0 20.002 5.524 5.524 14.479 5.524 20.003 0Z"/>
    <path d="M120.186 58.338c.032-6.364 3.922-10.093 9.515-10.093 5.561 0 8.84 3.568 8.808 9.643v28.996h13.694V55.445c.032-11.572-6.783-18.58-17.07-18.58-7.489 0-12.504 3.536-14.754 9.355h-.579V21.05h-13.308v65.834h13.694V58.338Zm53.253 29.478c7.296 0 12.021-3.183 14.433-7.78h.385v6.848h12.987V53.58c0-11.765-9.965-16.716-20.959-16.716-11.83 0-19.608 5.658-21.505 14.659l12.666 1.028c.932-3.279 3.857-5.69 8.775-5.69 4.66 0 7.33 2.347 7.33 6.397v.194c0 3.182-3.376 3.6-11.959 4.435-9.772.9-18.548 4.18-18.548 15.205 0 9.772 6.975 14.723 16.395 14.723Zm3.92-9.451c-4.21 0-7.232-1.96-7.232-5.722 0-3.858 3.183-5.755 8.005-6.43 2.989-.417 7.875-1.124 9.514-2.218v5.24c0 5.176-4.275 9.13-10.286 9.13Zm71.97-26.777c-1.222-9.098-8.551-14.723-21.023-14.723-12.633 0-20.959 5.851-20.927 15.366-.032 7.393 4.63 12.183 14.273 14.112l8.55 1.703c4.307.868 6.268 2.443 6.332 4.918-.064 2.926-3.246 5.015-8.035 5.015-4.886 0-8.133-2.09-8.97-6.108l-13.468.707c1.286 9.452 9.322 15.27 22.406 15.27 12.793 0 21.954-6.526 21.987-16.266-.033-7.136-4.693-11.412-14.272-13.372l-8.937-1.8c-4.597-.997-6.3-2.572-6.269-4.95-.032-2.958 3.312-4.887 7.555-4.887 4.757 0 7.586 2.604 8.261 5.786l12.536-.771Zm19.82 6.75c.033-6.364 3.922-10.093 9.515-10.093 5.562 0 8.84 3.568 8.808 9.643v28.996h13.694V55.445c.032-11.572-6.783-18.58-17.07-18.58-7.489 0-12.503 3.536-14.753 9.355h-.58V21.05h-13.307v65.834h13.694V58.338Zm52.867 0c.032-6.364 3.825-10.093 9.354-10.093 5.497 0 8.808 3.6 8.775 9.643v28.996h13.694V55.445c0-11.507-6.75-18.58-17.036-18.58-7.33 0-12.633 3.6-14.851 9.355h-.58v-8.712h-13.05v49.376h13.694V58.338Zm61.304 29.51c14.98 0 24.302-10.255 24.302-25.46 0-15.3-9.322-25.523-24.302-25.523s-24.301 10.223-24.301 25.524c0 15.204 9.321 25.459 24.3 25.459Zm.065-10.608c-6.911 0-10.448-6.333-10.448-14.948s3.537-14.979 10.448-14.979c6.782 0 10.318 6.365 10.318 14.979 0 8.615-3.536 14.948-10.318 14.948ZM431.1 87.687c7.972 0 12.118-4.597 14.015-8.711h.579v7.908h13.5V21.05h-13.661v24.752h-.418c-1.833-4.018-5.787-8.937-14.047-8.937-10.833 0-19.995 8.422-19.995 25.395 0 16.523 8.776 25.427 20.027 25.427Zm4.34-10.897c-6.719 0-10.384-5.98-10.384-14.594 0-8.551 3.6-14.433 10.383-14.433 6.654 0 10.383 5.625 10.383 14.433 0 8.807-3.793 14.594-10.383 14.594Zm53.894 11.058c12.216 0 20.444-5.947 22.373-15.109l-12.665-.835c-1.382 3.76-4.918 5.721-9.483 5.721-6.847 0-11.187-4.532-11.187-11.893V65.7h33.625v-3.762c0-16.78-10.159-25.073-23.21-25.073-14.53 0-23.948 10.319-23.948 25.556 0 15.655 9.29 25.427 24.495 25.427Zm-10.962-30.635c.29-5.625 4.566-10.125 10.64-10.125 5.947 0 10.062 4.243 10.094 10.125h-20.734Z"/>
  </g>
</svg>
